X:1
T:James Gibb editions
T:Psalm 66 (Becker) - Schütz
%%score [ ( 1 2 ) ( 3 4 ) ]
L:1/8
Q:1/4=100
M:3/4
K:F
V:1 treble nm="Soprano Alto"
V:2 treble 
V:3 bass nm="Tenor Bass"
V:4 bass 
V:1
"^Cornelius Becker\n(1561-1604)""^Heinrich Schütz\n(1585-1672)""^Psalm 66, SWV 163" d2 d2 d2 | %1
w: ~Jauch- zet Gott|
 c4 A2 | (B2 d2) ^c2 | d6 | d2 =c2 B2 | f4 _e2 | d2 c4 | B6 | c2 c2 c2 | B4 A2 | d4 d2 | ^c6 | %12
w: al- le|Lan\- * de|sehr,|lob- singt und|gebt sein'm|Na- men|Ehr,|rüh- met ihn|herr- lich,|sprecht zu|Gott:|
 d2 B2 =c2 | A4 B2 | (G2 A2) ^F2 | G12 |] %16
w: Herr, du hilfst|uns aus|al\- * ler|Not.|
V:2
 G2 G2 F2 | A4 F2 | (D2 F2) E2 | ^F6 | =F2 F2 D2 | D4 B,2 | F2 F4 | F6 | F2 F2 A2 | G4 F2 | D4 G2 | %11
 A6 | A2 G2 G2 | F4 F2 | _E4 D2 | D12 |] %16
V:3
 B,2 B,2 D2 | F4 C2 | (B,2 A,2) A,2 | A,6 | B,2 A,2 G,2 | A,4 G,2 | B,2 A,4 | B,6 | %8
"^3. Es bete dich an alle Land,\nauf daß dein Ehre wird bekannt,\nalles lobsinge die allein\nund preis dein göttlich Ehre dein.\n\n4. Kommt her und schauet fleißig an\ndie großen Werk, die Gott getan,\nmächtig groß deine Wunder sind,\ndavon zeugen die Menschenkind.\n\n7. Ihr Völker lobet unsern Gott,\nsein Ruhm erschall an allem Ort,\ndenn er bewahrt uns Leib und Seel\nund unsern Fuß vor Ungefäll." A,2 A,2 A,2 | %9
 D4 C2 | F4 (ED) | E6 | %12
 A,2"^13. Kommt her, hört zu mit will'gem Mut,\nall die ihr Gott recht fürchten tut,\nich will euch gründlich zeigen an,\nwas Gott an meiner Seel getan.\n\n14. Ich rief zu Gott von Herzensgrund,\nmein Zung sein Ruhm und Lob macht kund,\nwâr mein Herz nicht richtig vor ihm,\nso hört er nicht meins Flehens Stimm.\n\n15. Gott hat mein Seufzen wohl erhört\nund mir mein Bitt in Gnad gewährt,\nLob und Dank sag ich ihm dafür,\ndaß er sein Gnad nicht wend't von mir." D2 G,2 | %13
 C4 D2 | (B,2 C2) A,2 | =B,12 |] %16
V:4
 G,2 G,2 B,2 | F,4 F,2 | (G,2 D,2) A,2 | D,6 | B,,2 F,2 G,2 | D,4 _E,2 | B,,2 F,4 | B,,6 | %8
 F,2 F,2 F,2 | G,4 A,2 | B,4 B,2 | A,6 | ^F,2 G,2 E,2 | =F,4 D,2 | (_E,2 C,2) D,2 | G,,12 |] %16

